styles/1/Numix/64/places/grey-folder-templates.svg

<?xml version="1.0" encoding="UTF-8" standalone="no"?>
<!-- Created with Inkscape (http://www.inkscape.org/) -->

<svg
   xmlns:dc="http://purl.org/dc/elements/1.1/"
   xmlns:cc="http://creativecommons.org/ns#"
   xmlns:rdf="http://www.w3.org/1999/02/22-rdf-syntax-ns#"
   xmlns:svg="http://www.w3.org/2000/svg"
   xmlns="http://www.w3.org/2000/svg"
   xmlns:sodipodi="http://sodipodi.sourceforge.net/DTD/sodipodi-0.dtd"
   xmlns:inkscape="http://www.inkscape.org/namespaces/inkscape"
   width="64"
   height="64"
   id="svg2"
   version="1.1"
   inkscape:version="0.91 r"
   sodipodi:docname="grey-folder-templates.svg"
   inkscape:export-filename="/media/Data/Main/Visuals/Icons/Numix/Desktop/repos/numix-wiki/Gjorgi/Numix-folders/48/New/folder-144.png"
   inkscape:export-xdpi="270"
   inkscape:export-ydpi="270">
  <defs
     id="defs4" />
  <sodipodi:namedview
     id="base"
     pagecolor="#ffffff"
     bordercolor="#666666"
     borderopacity="1.0"
     inkscape:pageopacity="0.0"
     inkscape:pageshadow="2"
     inkscape:zoom="8.5701345"
     inkscape:cx="22.383853"
     inkscape:cy="35.195446"
     inkscape:document-units="px"
     inkscape:current-layer="layer1"
     showgrid="true"
     inkscape:window-width="1280"
     inkscape:window-height="998"
     inkscape:window-x="0"
     inkscape:window-y="0"
     inkscape:window-maximized="1"
     showguides="true"
     inkscape:guide-bbox="true">
    <inkscape:grid
       type="xygrid"
       id="grid2985"
       empspacing="5"
       visible="true"
       enabled="true"
       snapvisiblegridlinesonly="true" />
  </sodipodi:namedview>
  <metadata
     id="metadata7">
    <rdf:RDF>
      <cc:Work
         rdf:about="">
        <dc:format>image/svg+xml</dc:format>
        <dc:type
           rdf:resource="http://purl.org/dc/dcmitype/StillImage" />
        <dc:title />
      </cc:Work>
    </rdf:RDF>
  </metadata>
  <g
     inkscape:label="Layer 1"
     inkscape:groupmode="layer"
     id="layer1"
     transform="translate(0,-988.3622)">
    <path
       style="font-size:medium;font-style:normal;font-variant:normal;font-weight:normal;font-stretch:normal;text-indent:0;text-align:start;text-decoration:none;line-height:normal;letter-spacing:normal;word-spacing:normal;text-transform:none;direction:ltr;block-progression:tb;writing-mode:lr-tb;text-anchor:start;baseline-shift:baseline;color:#000000;fill:#bdbdbd;fill-opacity:1;fill-rule:nonzero;stroke:none;stroke-width:2.28612947;marker:none;visibility:visible;display:inline;overflow:visible;enable-background:accumulate;font-family:Sans;-inkscape-font-specification:Sans"
       d="M 6.0625 10 C 4.933085 10.11097 3.981587 11.1778 4 12.3125 L 4 51.6875 C 3.986 52.9021 5.097925 54.0139 6.3125 54 L 57.6875 54 C 58.902076 54.014 60.013966 52.9021 60 51.6875 L 60 16.3125 C 60.014 15.0979 58.902076 13.986 57.6875 14 L 38 14 L 38 12.3125 C 38.01375 11.11871 36.943717 10.01891 35.75 10 L 6.3125 10 C 6.22925 9.995 6.14575 9.99499 6.0625 10 z M 21 21 L 21.1875 21 L 25 21 L 25 25 L 23 25 L 23 27 L 19 27 L 19 23 C 19 21.076 21 21 21 21 z M 27 21 L 31 21 L 31 25 L 27 25 L 27 21 z M 33 21 L 37 21 L 37 25 L 33 25 L 33 21 z M 39 21 L 43 21 C 43 21 45 21 45 23 L 45 27 L 41 27 L 41 25 L 39 25 L 39 21 z M 19 29 L 23 29 L 23 33 L 19 33 L 19 29 z M 41 29 L 45 29 L 45 33 L 41 33 L 41 29 z M 19 35 L 23 35 L 23 39 L 19 39 L 19 35 z M 41 35 L 45 35 L 45 39 L 41 39 L 41 35 z M 19 41 L 23 41 L 23 43 L 25 43 L 25 47 L 21 47 C 21 47 19 47 19 45 L 19 41 z M 41 41 L 45 41 L 45 45 C 45 47 43 47 43 47 L 39 47 L 39 43 L 41 43 L 41 41 z M 27 43 L 31 43 L 31 47 L 27 47 L 27 43 z M 33 43 L 37 43 L 37 47 L 33 47 L 33 43 z "
       transform="translate(0,988.3622)"
       id="path3912" />
  </g>
</svg>

<!-- Created with Inkscape (http://www.inkscape.org/) -->
<svg xmlns="http://www.w3.org/2000/svg" viewBox="0 0 64 64">
 <g transform="translate(0,-988.3622)">
  <path d="m 6.06 10 c -1.129 0.111 -2.081 1.178 -2.063 2.313 l 0 39.38 c -0.014 1.215 1.098 2.326 2.313 2.313 l 51.38 0 c 1.215 0.014 2.326 -1.098 2.313 -2.313 l 0 -35.37 c 0.014 -1.215 -1.098 -2.326 -2.313 -2.313 l -19.688 0 l 0 -1.688 c 0.014 -1.194 -1.056 -2.294 -2.25 -2.313 l -29.438 0 c -0.083 -0.005 -0.167 -0.005 -0.25 0 z m 14.938 11 l 0.188 0 l 3.813 0 l 0 4 l -2 0 l 0 2 l -4 0 l 0 -4 c 0 -1.924 2 -2 2 -2 z m 6 0 l 4 0 l 0 4 l -4 0 l 0 -4 z m 6 0 l 4 0 l 0 4 l -4 0 l 0 -4 z m 6 0 l 4 0 c 0 0 2 0 2 2 l 0 4 l -4 0 l 0 -2 l -2 0 l 0 -4 z m -20 8 l 4 0 l 0 4 l -4 0 l 0 -4 z m 22 0 l 4 0 l 0 4 l -4 0 l 0 -4 z m -22 6 l 4 0 l 0 4 l -4 0 l 0 -4 z m 22 0 l 4 0 l 0 4 l -4 0 l 0 -4 z m -22 6 l 4 0 l 0 2 l 2 0 l 0 4 l -4 0 c 0 0 -2 0 -2 -2 l 0 -4 z m 22 0 l 4 0 l 0 4 c 0 2 -2 2 -2 2 l -4 0 l 0 -4 l 2 0 l 0 -2 z m -14 2 l 4 0 l 0 4 l -4 0 l 0 -4 z m 6 0 l 4 0 l 0 4 l -4 0 l 0 -4 z" transform="translate(0,988.3622)" style="visibility:visible;fill:#bdbdbd;fill-opacity:1;stroke:none;display:inline;color:#000;fill-rule:nonzero"/>
 </g>
</svg>
